icons/1_Primary/Uber.svg

<svg width="1024" height="1024" viewBox="0 0 1024 1024" fill="none" xmlns="http://www.w3.org/2000/svg">
<g clip-path="url(#clip0_2_3765)">
<path d="M512 1024C794.77 1024 1024 794.77 1024 512C1024 229.23 794.77 0 512 0C229.23 0 0 229.23 0 512C0 794.77 229.23 1024 512 1024Z" fill="#56595B"/>
<path d="M303.95 584.78C330.89 584.78 351.72 563.94 351.72 533.11V413.11H380.88V607.56H352V589.5C338.95 603.11 320.89 610.89 300.61 610.89C258.94 610.89 227 580.61 227 534.8V413.14H256.16V533.14C256.16 564.53 276.71 584.81 303.94 584.81M402.52 607.58H430.31V589.78C436.91 596.488 444.782 601.811 453.466 605.436C462.15 609.061 471.47 610.915 480.88 610.89C522.55 610.89 555.32 577.84 555.32 537.01C555.361 527.236 553.462 517.55 549.732 508.515C546.003 499.48 540.517 491.275 533.593 484.376C526.668 477.477 518.444 472.021 509.395 468.324C500.347 464.628 490.654 462.764 480.88 462.84C471.515 462.817 462.24 464.674 453.605 468.3C444.97 471.926 437.151 477.248 430.61 483.95V413.12H402.55L402.52 607.58ZM478.95 586.2C469.203 586.313 459.642 583.527 451.482 578.194C443.322 572.862 436.931 565.224 433.121 556.252C429.311 547.28 428.254 537.377 430.084 527.803C431.914 518.229 436.549 509.414 443.399 502.479C450.249 495.544 459.006 490.802 468.557 488.855C478.109 486.907 488.023 487.843 497.042 491.543C506.06 495.242 513.775 501.539 519.208 509.633C524.64 517.727 527.543 527.253 527.55 537C527.55 564.22 505.61 586.17 478.94 586.17M639.22 463.11C597.83 463.11 566.44 496.72 566.44 536.72C566.44 578.94 599.22 610.6 641.71 610.6C667.54 610.6 688.65 599.21 702.82 580.32L682.54 565.32C671.99 579.49 658.11 586.16 641.71 586.16C617.84 586.16 598.71 568.94 594.78 545.88H710V536.71C710 494.49 680 463.1 639.17 463.1M595.28 523.66C600.28 501.99 617.78 487.55 638.61 487.55C659.44 487.55 677 502 681.72 523.67H595.33M797 490.91V464.79H787.28C771.72 464.79 760.33 472.01 753.39 483.4V465.89H725.6V607.56H753.66V527C753.66 505.06 766.99 490.89 785.33 490.89L797 490.91Z" fill="white"/>
</g>
<defs>
<clipPath id="clip0_2_3765">
<rect width="1024" height="1024" fill="white"/>
</clipPath>
</defs>
</svg>

<svg xmlns="http://www.w3.org/2000/svg" width="1024" height="1024" fill="none">
   <g clip-path="url(#a)">
      <path fill="#56595B" d="M512 1024c282.77 0 512-229.23 512-512S794.77 0 512 0 0 229.23 0 512s229.23 512 512 512Z"/>
      <path fill="#fff" d="M303.95 584.78c26.94 0 47.77-20.84 47.77-51.67v-120h29.16v194.45H352V589.5c-13.05 13.61-31.11 21.39-51.39 21.39-41.67 0-73.61-30.28-73.61-76.09V413.14h29.16v120c0 31.39 20.55 51.67 47.78 51.67m98.58 22.77h27.79v-17.8a70.684 70.684 0 0 0 50.57 21.11c41.67 0 74.44-33.05 74.44-73.88a73.862 73.862 0 0 0-74.44-74.17 70.005 70.005 0 0 0-50.27 21.11v-70.83h-28.06l-.03 194.46Zm76.43-21.38a49.166 49.166 0 0 1-45.829-29.948 49.169 49.169 0 0 1 63.921-64.709A49.172 49.172 0 0 1 527.55 537c0 27.22-21.94 49.17-48.61 49.17m160.28-123.06c-41.39 0-72.78 33.61-72.78 73.61 0 42.22 32.78 73.88 75.27 73.88 25.83 0 46.94-11.39 61.11-30.28l-20.28-15c-10.55 14.17-24.43 20.84-40.83 20.84-23.87 0-43-17.22-46.93-40.28H710v-9.17c0-42.22-30-73.61-70.83-73.61m-43.89 60.56c5-21.67 22.5-36.11 43.33-36.11S677 502 681.72 523.67h-86.39M797 490.91v-26.12h-9.72c-15.56 0-26.95 7.22-33.89 18.61v-17.51H725.6v141.67h28.06V527c0-21.94 13.33-36.11 31.67-36.11l11.67.02Z"/>
   </g>
   <defs>
      <clipPath id="a">
         <path fill="#fff" d="M0 0h1024v1024H0z"/>
      </clipPath>
   </defs>
</svg>
